svg/u1f31b.svg

<svg viewBox="0 0 128 128" xmlns="http://www.w3.org/2000/svg">
  <rect fill="#F2F2F2" height="0.67" width="0" x="-1228" y="-57.67"/>
  <g>
    <g>
      <path d="M30.31,95.25c5.93-0.17,11.82-1.39,17.33-3.6c1.79-0.72,3.58-1.47,5.28-2.37 c0.66-0.35,1.49-0.69,1.97-1.29c0.43-0.54,0.51-1.27,0.73-1.91c0.87-2.54,2.99-2.75,3.47-2.99c1.3-0.66,3.8-2.51,3.07-4.22 c-0.47-1.09-7.77-4.5-6.28-10.76c0.73-3.05,2.98-1.7,10.24-4.34c3.11-1.13,5.66-3.46,7.63-6.12c6.55-8.81,7.17-17.68,4.12-28 c-2.42-8.2-6.93-15.73-12.99-21.76c-1.53-1.52-0.31-4.12,1.83-3.87c30.88,3.59,54.62,30.54,53.1,62.71 c-1.45,30.56-26.09,55.44-56.63,57.17c-23.08,1.3-43.53-10.4-54.71-28.46c-1.13-1.83,0.69-4.04,2.71-3.3 C17.11,94.33,23.57,95.44,30.31,95.25z" fill="#FFE558"/>
      <path d="M30.31,95.25c5.93-0.17,11.82-1.39,17.33-3.6c1.79-0.72,3.58-1.47,5.28-2.37 c0.66-0.35,1.49-0.69,1.97-1.29c0.43-0.54,0.51-1.27,0.73-1.91c0.87-2.54,2.99-2.75,3.47-2.99c1.3-0.66,3.8-2.51,3.07-4.22 c-0.47-1.09-7.77-4.5-6.28-10.76c0.73-3.05,2.98-1.7,10.24-4.34c3.11-1.13,5.66-3.46,7.63-6.12c6.55-8.81,7.17-17.68,4.12-28 c-2.42-8.2-6.93-15.73-12.99-21.76c-1.53-1.52-0.31-4.12,1.83-3.87c30.88,3.59,54.62,30.54,53.1,62.71 c-1.45,30.56-26.09,55.44-56.63,57.17c-23.08,1.3-43.53-10.4-54.71-28.46c-1.13-1.83,0.69-4.04,2.71-3.3 C17.11,94.33,23.57,95.44,30.31,95.25z" fill="#FFE558"/>
      <path d="M16.68,103.59c12.13,10.53,30.16,16.12,44.5,15.31c30.54-1.73,55.18-26.61,56.63-57.17 c0.41-8.73-1.3-17.54-4.69-25.67c4.74,9.11,7.22,19.58,6.69,30.67c-1.45,30.56-26.09,55.44-56.63,57.17 c-23.08,1.3-43.53-10.4-54.71-28.46c-0.35-0.56-0.42-1.16-0.28-1.7C10.43,97.38,13.33,100.67,16.68,103.59z" fill="#FBC02D"/>
      <radialGradient id="SVGID_1_" cx="44.6471" cy="28.6963" gradientTransform="matrix(-1 0 0 1.0553 128 -1.5863)" gradientUnits="userSpaceOnUse" r="40.9352">
        <stop offset="0" stop-color="#FFF7B3"/>
        <stop offset="1" stop-color="#FFF7B2" stop-opacity="0"/>
      </radialGradient>
      <path d="M66.71,4.02c0,0,12.22,10.15,16.64,22.49c3.63,10.14,6.27,30.8-17.73,39.31l17.21,16.73 c0.6-0.5-0.05-6.82,10.78-12.14c3.32-1.63,10.67,1.46,14.15,0.23c16.74-5.93,7.71-29.92,6.57-32.09 C96.64,4.62,66.71,4.02,66.71,4.02z" fill="url(#SVGID_1_)"/>
      <g>
        <path d="M87.32,69.06c-3.5,0.61-6.3-2.29-6.68-5.53c-0.3-2.59,0.73-4.97,1.96-6.02 c5.14-4.39,15.08,0.01,14.81,8.69c-0.02,0.56-0.22,1.15-0.67,1.49c-0.38-0.73-1.07-4.05-4.08-5.4c-0.22-0.1-0.51-0.1-0.71,0.04 C91.68,62.52,92.33,68.19,87.32,69.06z" fill="#5D4037"/>
        <path d="M65.86,93.19c6.52,0,10.05-2.89,11.61-4.88c0.54-0.68,0.38-1.67-0.32-2.18v0 c-0.47-0.34-1.1-0.39-1.61-0.11c-4.83,2.67-11.37,3.17-16.86,0.31c-1.09-0.57-1.85-1.94-2.59-1.22 c-0.75,0.72-0.51,2.48,0.28,3.59C57.65,90.53,60.24,93.19,65.86,93.19z" fill="#5D4037"/>
      </g>
      <path d="M62.25,79.83c0.06-0.32,0.04-0.64-0.1-0.96c-0.47-1.09-7.77-4.5-6.28-10.76 c0.08-0.32,0.17-0.58,0.29-0.81l0.03,0.02c0.48,2.75,2.43,5.11,4.85,6.51c0.73,0.42,1.5,0.77,2.16,1.29 c0.66,0.52,1.21,1.26,1.25,2.1c0.06,1.07-0.75,2.06-1.74,2.47C62.56,79.76,62.41,79.79,62.25,79.83z" fill="#F2A600"/>
    </g>
    <radialGradient id="SVGID_2_" cx="-2352.8853" cy="72.755" gradientTransform="matrix(0.9201 -0.3918 0.3131 0.7354 2233.8142 -902.5493)" gradientUnits="userSpaceOnUse" r="16.1348">
      <stop offset="0" stop-color="#FBC02D"/>
      <stop offset="1" stop-color="#FBC02D" stop-opacity="0"/>
    </radialGradient>
    <path d="M82.83,82.55c1.55,3.75,7.63,4.79,13.58,2.32c5.95-2.46,9.52-7.5,7.97-11.24 c-1.55-3.75-7.63-4.79-13.58-2.32C84.85,73.77,81.28,78.8,82.83,82.55z" fill="url(#SVGID_2_)"/>
  </g>
</svg>

<svg viewBox="0 0 128 128" xmlns="http://www.w3.org/2000/svg">
  <defs>
    <radialGradient id="SVGID_2_" cx="55.848764" cy="128.769014" gradientTransform="matrix(0.9201 -0.3918 0.3131 0.7354 0 0)" gradientUnits="userSpaceOnUse" r="16.1348">
      <stop offset="0" stop-color="#FBC02D"/>
      <stop offset="1" stop-color="#FBC02D" stop-opacity="0"/>
    </radialGradient>
    <radialGradient id="SVGID_1_" cx="-83.3529" cy="27.193126" gradientTransform="matrix(-1 0 0 1.0553 0 0)" gradientUnits="userSpaceOnUse" r="40.9352">
      <stop offset="0" stop-color="#FFF7B3"/>
      <stop offset="1" stop-color="#FFF7B2" stop-opacity="0"/>
    </radialGradient>
  </defs>
  <path d="M30.31,95.25 C36.24,95.08 42.13,93.86 47.64,91.65 C49.43,90.93 51.22,90.18 52.92,89.28 C53.58,88.93 54.41,88.59 54.89,87.99 C55.32,87.45 55.4,86.72 55.62,86.08 C56.49,83.54 58.61,83.33 59.09,83.09 C60.39,82.43 62.89,80.58 62.16,78.87 C61.69,77.78 54.39,74.37 55.88,68.11 C56.61,65.06 58.86,66.41 66.12,63.77 C69.23,62.64 71.78,60.31 73.75,57.65 C80.3,48.84 80.92,39.97 77.87,29.65 C75.45,21.45 70.94,13.92 64.88,7.89 C63.35,6.37 64.57,3.77 66.71,4.02 C97.59,7.61 121.33,34.56 119.81,66.73 C118.36,97.29 93.72,122.17 63.18,123.9 C40.1,125.2 19.65,113.5 8.47,95.44 C7.34,93.61 9.16,91.4 11.18,92.14 C17.11,94.33 23.57,95.44 30.31,95.25 Z" fill="#FFE558"/>
  <path d="M30.31,95.25 C36.24,95.08 42.13,93.86 47.64,91.65 C49.43,90.93 51.22,90.18 52.92,89.28 C53.58,88.93 54.41,88.59 54.89,87.99 C55.32,87.45 55.4,86.72 55.62,86.08 C56.49,83.54 58.61,83.33 59.09,83.09 C60.39,82.43 62.89,80.58 62.16,78.87 C61.69,77.78 54.39,74.37 55.88,68.11 C56.61,65.06 58.86,66.41 66.12,63.77 C69.23,62.64 71.78,60.31 73.75,57.65 C80.3,48.84 80.92,39.97 77.87,29.65 C75.45,21.45 70.94,13.92 64.88,7.89 C63.35,6.37 64.57,3.77 66.71,4.02 C97.59,7.61 121.33,34.56 119.81,66.73 C118.36,97.29 93.72,122.17 63.18,123.9 C40.1,125.2 19.65,113.5 8.47,95.44 C7.34,93.61 9.16,91.4 11.18,92.14 C17.11,94.33 23.57,95.44 30.31,95.25 Z" fill="#FFE558"/>
  <path d="M16.68,103.59 C28.81,114.12 46.84,119.71 61.18,118.9 C91.72,117.17 116.36,92.29 117.81,61.73 C118.22,53 116.51,44.19 113.12,36.06 C117.86,45.17 120.34,55.64 119.81,66.73 C118.36,97.29 93.72,122.17 63.18,123.9 C40.1,125.2 19.65,113.5 8.47,95.44 C8.12,94.88 8.05,94.28 8.19,93.74 C10.43,97.38 13.33,100.67 16.68,103.59 Z" fill="#FBC02D"/>
  <path d="M66.71,4.02 C66.71,4.02 78.93,14.17 83.35,26.51 C86.98,36.65 89.62,57.31 65.62,65.82 L82.83,82.55 C83.43,82.05 82.78,75.73 93.61,70.41 C96.93,68.78 104.28,71.87 107.76,70.64 C124.5,64.71 115.47,40.72 114.33,38.55 C96.64,4.62 66.71,4.02 66.71,4.02 Z" fill="url(#SVGID_1_)"/>
  <path d="M87.32,69.06 C83.82,69.67 81.02,66.77 80.64,63.53 C80.34,60.94 81.37,58.56 82.6,57.51 C87.74,53.12 97.68,57.52 97.41,66.2 C97.39,66.76 97.19,67.35 96.74,67.69 C96.36,66.96 95.67,63.64 92.66,62.29 C92.44,62.19 92.15,62.19 91.95,62.33 C91.68,62.52 92.33,68.19 87.32,69.06 Z" fill="#5D4037"/>
  <path d="M65.86,93.19 C72.38,93.19 75.91,90.3 77.47,88.31 C78.01,87.63 77.85,86.64 77.15,86.13 L77.15,86.13 C76.68,85.79 76.05,85.74 75.54,86.02 C70.71,88.69 64.17,89.19 58.68,86.33 C57.59,85.76 56.83,84.39 56.09,85.11 C55.34,85.83 55.58,87.59 56.37,88.7 C57.65,90.53 60.24,93.19 65.86,93.19 Z" fill="#5D4037"/>
  <path d="M62.25,79.83 C62.31,79.51 62.29,79.19 62.15,78.87 C61.68,77.78 54.38,74.37 55.87,68.11 C55.95,67.79 56.04,67.53 56.16,67.3 L56.19,67.32 C56.67,70.07 58.62,72.43 61.04,73.83 C61.77,74.25 62.54,74.6 63.2,75.12 C63.86,75.64 64.41,76.38 64.45,77.22 C64.51,78.29 63.7,79.28 62.71,79.69 C62.56,79.76 62.41,79.79 62.25,79.83 Z" fill="#F2A600"/>
  <path d="M82.83,82.55 C84.38,86.3 90.46,87.34 96.41,84.87 C102.36,82.41 105.93,77.37 104.38,73.63 C102.83,69.88 96.75,68.84 90.8,71.31 C84.85,73.77 81.28,78.8 82.83,82.55 Z" fill="url(#SVGID_2_)"/>
</svg>
